X:325
T:Sandmount
Z: id:dc-reel-303
M:C
L:1/8
K:A Dorian
g|eAA2 ABAG|EGDG EGDG|eAA2 ABcd|egfa ged:|!
g|eaa^g a3=g|gede gedg|eaa^g ae=ga|bagb a3g|!
eaa^g a3=g|gedB dega|bggf g2fg|egdg eaa|]!

